src/lib/packages/icons/src/assets/filled/globe-earth.svg

<svg width="24" height="24" viewBox="0 0 24 24" fill="none" xmlns="http://www.w3.org/2000/svg">
<path d="M12 1.25C6.072 1.25 1.25 6.073 1.25 12C1.25 17.927 6.072 22.75 12 22.75C17.928 22.75 22.75 17.927 22.75 12C22.75 6.073 17.928 1.25 12 1.25ZM2.75 12C2.75 10.934 2.93999 9.91399 3.27399 8.95999C3.89399 13.47 7.85 13.851 8.021 14.57C8.211 15.38 8.021 15.62 8.091 17.01C8.161 18.4 10.081 18.42 10.821 19.52C11.039 19.84 11.165 20.525 11.111 21.205C6.42602 20.756 2.75 16.8 2.75 12ZM14.51 20.895C15.191 18.762 17.236 18.039 17.444 16.806C17.611 15.817 16.311 15.311 15.144 15.167C13.988 15.034 14.155 13.823 13.333 12.967C12.511 12.111 11.973 12.16 10.818 12.304C9.65099 12.437 8.67298 12.354 8.34998 11.643C8.03898 10.932 8.43899 10.592 7.58899 9.711C6.88099 8.977 7.64098 8.31901 8.01898 8.23001C8.61898 8.08601 9.68597 9.13499 10.311 9.00699C12.194 8.61899 9.93799 4.93399 12.766 4.00699C13.261 3.84499 13.724 3.45101 13.957 2.96301C15.573 3.31301 17.027 4.08899 18.209 5.16299C18.534 6.08799 18.76 7.15001 18.571 7.71301C18.193 8.88001 17.244 9.719 18.28 11.629C19.361 13.623 20.028 13.894 20.514 13.346C20.707 13.128 20.958 12.974 21.208 12.881C20.841 16.718 18.121 19.874 14.51 20.895Z" fill="currentColor"/>
</svg>

<svg xmlns="http://www.w3.org/2000/svg" width="24" height="24" fill="none"><path fill="currentColor" d="M12 1.25C6.072 1.25 1.25 6.073 1.25 12S6.072 22.75 12 22.75 22.75 17.927 22.75 12 17.928 1.25 12 1.25ZM2.75 12c0-1.066.19-2.086.524-3.04.62 4.51 4.576 4.891 4.747 5.61.19.81 0 1.05.07 2.44s1.99 1.41 2.73 2.51c.218.32.344 1.005.29 1.685C6.426 20.756 2.75 16.8 2.75 12Zm11.76 8.895c.681-2.133 2.726-2.856 2.934-4.089.167-.989-1.133-1.495-2.3-1.639-1.156-.133-.989-1.344-1.811-2.2-.822-.856-1.36-.807-2.515-.663-1.167.133-2.145.05-2.468-.661-.311-.711.089-1.051-.761-1.932-.708-.734.052-1.392.43-1.481.6-.144 1.667.905 2.292.777 1.883-.388-.373-4.073 2.455-5a2.08 2.08 0 0 0 1.191-1.044 9.226 9.226 0 0 1 4.252 2.2c.325.925.551 1.987.362 2.55-.378 1.167-1.327 2.006-.291 3.916 1.081 1.994 1.748 2.265 2.234 1.717a1.74 1.74 0 0 1 .694-.465c-.367 3.837-3.087 6.993-6.698 8.014Z"/></svg>
